flaticon/essential/fingerprint.svg

<svg xmlns="http://www.w3.org/2000/svg" width="32" height="32" viewBox="0 0 24 24">
    <path d="M11.832031 10.59375C11.613281 10.65625 11.492188 10.878906 11.554688 11.097656 11.5625 11.132812 12.648438 14.996094 12.351562 23.578125 12.34375 23.804688 12.519531 23.992188 12.742188 24 12.746094 24 12.753906 24 12.757812 24 12.976562 24 13.15625 23.828125 13.164062 23.609375 13.46875 14.898438 12.378906 11.03125 12.335938 10.871094 12.273438 10.652344 12.046875 10.53125 11.832031 10.59375zM22.058594 6.703125C20.335938 2.632812 16.367188 0 11.945312 0 10.484375 0 9.0625.285156 7.714844.847656 6.96875 1.160156 6.265625 1.527344 5.621094 1.949219 5.429688 2.070312 5.378906 2.320312 5.5 2.511719 5.621094 2.699219 5.875 2.753906 6.0625 2.628906 6.667969 2.238281 7.328125 1.890625 8.027344 1.597656 9.277344 1.078125 10.59375.8125 11.945312.8125 16.039062.8125 19.714844 3.25 21.308594 7.019531 21.972656 8.589844 22.332031 11.476562 22.484375 13.054688 22.507812 13.265625 22.683594 13.421875 22.890625 13.421875 22.902344 13.421875 22.917969 13.421875 22.929688 13.421875 23.152344 13.398438 23.316406 13.199219 23.296875 12.976562 23.101562 10.988281 22.730469 8.285156 22.058594 6.703125zM4.414062 3.949219C4.574219 3.792969 4.574219 3.535156 4.417969 3.375 4.261719 3.214844 4.003906 3.214844 3.84375 3.371094 1.65625 5.527344-.523438 9.535156 1.515625 16.386719 1.570312 16.5625 1.730469 16.679688 1.90625 16.679688 1.945312 16.679688 1.984375 16.671875 2.023438 16.660156 2.238281 16.597656 2.359375 16.371094 2.296875 16.15625.773438 11.035156 1.503906 6.816406 4.414062 3.949219zM4.414062 3.949219"/>
    <path d="M 12.257812 2.445312 C 11.011719 2.398438 9.800781 2.621094 8.65625 3.101562 C 4.667969 4.765625 2.546875 9.148438 3.722656 13.304688 C 3.839844 13.71875 3.960938 14.160156 4.023438 14.601562 C 4.171875 15.597656 4.179688 17.429688 4.179688 20.339844 C 4.179688 20.5625 4.359375 20.746094 4.585938 20.746094 C 4.808594 20.746094 4.992188 20.5625 4.992188 20.339844 C 4.992188 17.304688 4.984375 15.535156 4.828125 14.480469 C 4.757812 13.992188 4.628906 13.523438 4.503906 13.082031 C 3.441406 9.324219 5.359375 5.355469 8.96875 3.851562 C 10.003906 3.417969 11.109375 3.222656 12.226562 3.257812 C 15.121094 3.363281 18.398438 5.914062 19.386719 8.828125 C 20.242188 11.347656 20.25 15.644531 20.144531 19.515625 C 20.140625 19.738281 20.316406 19.925781 20.539062 19.933594 C 20.761719 19.925781 20.953125 19.761719 20.957031 19.535156 C 21.066406 15.59375 21.054688 11.207031 20.160156 8.566406 C 19.054688 5.308594 15.507812 2.5625 12.257812 2.445312 Z M 12.257812 2.445312"/>
    <path d="M11.945312 4.882812C11.5 4.882812 11.0625 4.929688 10.636719 5.023438 10.414062 5.070312 10.277344 5.289062 10.324219 5.507812 10.375 5.726562 10.589844 5.863281 10.808594 5.816406 11.179688 5.738281 11.5625 5.695312 11.945312 5.695312 14.074219 5.695312 15.984375 6.960938 16.8125 8.921875 17.800781 11.257812 17.867188 15.003906 17.636719 21.546875 17.628906 21.769531 17.804688 21.957031 18.03125 21.964844 18.035156 21.964844 18.039062 21.964844 18.046875 21.964844 18.261719 21.964844 18.445312 21.792969 18.453125 21.574219 18.6875 14.769531 18.617188 11.09375 17.5625 8.605469 16.605469 6.34375 14.402344 4.882812 11.945312 4.882812zM8.921875 6.644531C9.105469 6.515625 9.152344 6.261719 9.023438 6.078125 8.894531 5.894531 8.640625 5.851562 8.457031 5.980469 6.359375 7.449219 5.449219 10.277344 6.191406 13.015625 6.199219 13.042969 7.027344 16.050781 7.027344 20.746094 7.027344 20.96875 7.207031 21.152344 7.433594 21.152344 7.65625 21.152344 7.839844 20.96875 7.839844 20.746094 7.839844 15.941406 7.011719 12.921875 6.976562 12.800781 6.324219 10.394531 7.105469 7.921875 8.921875 6.644531zM15.976562 19.527344C15.976562 19.304688 15.796875 19.121094 15.570312 19.117188 15.34375 19.117188 15.164062 19.296875 15.160156 19.523438 15.160156 19.828125 15.167969 20.273438 15.179688 20.757812 15.195312 21.460938 15.214844 22.253906 15.195312 22.765625 15.1875 22.992188 15.363281 23.179688 15.589844 23.1875 15.59375 23.1875 15.597656 23.1875 15.605469 23.1875 15.820312 23.1875 16.003906 23.011719 16.011719 22.792969 16.027344 22.257812 16.011719 21.453125 15.992188 20.738281 15.984375 20.265625 15.972656 19.828125 15.976562 19.527344zM15.976562 19.527344"/>
    <path d="M 11.945312 7.730469 C 11.511719 7.730469 11.089844 7.8125 10.691406 7.980469 C 9.109375 8.640625 8.339844 10.425781 8.902344 12.136719 C 9.207031 13.066406 9.464844 17.941406 9.464844 22.78125 C 9.464844 23.003906 9.648438 23.1875 9.875 23.1875 C 10.097656 23.1875 10.28125 23.003906 10.28125 22.78125 C 10.28125 18.425781 10.046875 13.019531 9.675781 11.882812 C 9.246094 10.582031 9.816406 9.226562 11.003906 8.730469 C 11.304688 8.605469 11.621094 8.542969 11.945312 8.542969 C 12.925781 8.542969 13.808594 9.128906 14.191406 10.035156 C 14.953125 11.832031 15.179688 15.085938 15.234375 17.5 C 15.238281 17.722656 15.421875 17.898438 15.640625 17.898438 C 15.644531 17.898438 15.648438 17.898438 15.648438 17.898438 C 15.875 17.894531 16.050781 17.707031 16.046875 17.484375 C 15.988281 15 15.753906 11.636719 14.941406 9.714844 C 14.429688 8.507812 13.253906 7.730469 11.945312 7.730469 Z M 11.945312 7.730469"/>
</svg>

<svg xmlns="http://www.w3.org/2000/svg" width="32" height="32" viewBox="0 0 24 24">
    <path d="M11.832 10.594a.403.403 0 0 0-.277.504c.008.035 1.093 3.898.797 12.48a.406.406 0 0 0 .39.422h.016a.405.405 0 0 0 .406-.39c.305-8.712-.785-12.579-.828-12.739a.405.405 0 0 0-.504-.277zm0 0M22.059 6.703A10.963 10.963 0 0 0 11.945 0c-1.46 0-2.883.285-4.23.848-.746.312-1.45.68-2.094 1.101a.405.405 0 1 0 .441.68c.606-.39 1.266-.738 1.965-1.031 1.25-.52 2.567-.786 3.918-.786 4.094 0 7.77 2.438 9.364 6.208.664 1.57 1.023 4.457 1.175 6.035.024.21.2.367.407.367h.039a.413.413 0 0 0 .367-.445c-.195-1.989-.567-4.692-1.238-6.274zm0 0M4.414 3.95a.407.407 0 0 0-.57-.579C1.656 5.527-.523 9.535 1.516 16.387a.413.413 0 0 0 .39.293.41.41 0 0 0 .117-.02.406.406 0 0 0 .274-.504c-1.524-5.12-.793-9.34 2.117-12.207zm0 0"/>
    <path d="M12.258 2.445a8.42 8.42 0 0 0-3.602.657 8.542 8.542 0 0 0-4.933 10.203c.117.414.238.855.3 1.297.149.996.157 2.828.157 5.738a.406.406 0 1 0 .812 0c0-3.035-.008-4.805-.164-5.86-.07-.488-.2-.957-.324-1.398a7.729 7.729 0 0 1 4.465-9.23 7.77 7.77 0 0 1 3.258-.594c2.894.105 6.171 2.656 7.16 5.57.855 2.52.863 6.817.758 10.688a.411.411 0 0 0 .394.418c.223-.008.414-.172.418-.399.11-3.941.098-8.328-.797-10.969-1.105-3.257-4.652-6.004-7.902-6.12zm0 0"/>
    <path d="M11.945 4.883c-.445 0-.883.047-1.308.14a.406.406 0 1 0 .172.793 5.534 5.534 0 0 1 1.136-.12 5.272 5.272 0 0 1 4.867 3.226c.989 2.336 1.055 6.082.825 12.625a.406.406 0 0 0 .394.418h.016a.408.408 0 0 0 .406-.39c.235-6.805.164-10.481-.89-12.97a6.086 6.086 0 0 0-5.618-3.722zm0 0M8.922 6.645a.407.407 0 0 0 .101-.567.407.407 0 0 0-.566-.098c-2.098 1.47-3.008 4.297-2.266 7.036.008.027.836 3.035.836 7.73a.406.406 0 1 0 .813 0c0-4.805-.828-7.824-.863-7.945-.653-2.406.128-4.88 1.945-6.156zm0 0M15.977 19.527a.412.412 0 0 0-.407-.41.41.41 0 0 0-.41.406c0 .305.008.75.02 1.235.015.703.035 1.496.015 2.008a.407.407 0 0 0 .395.422h.015a.411.411 0 0 0 .407-.395c.015-.535 0-1.34-.02-2.055-.008-.472-.02-.91-.015-1.21zm0 0"/>
    <path d="M11.945 7.73c-.433 0-.855.082-1.254.25-1.582.66-2.351 2.446-1.789 4.157.305.93.563 5.804.563 10.644a.408.408 0 0 0 .816 0c0-4.355-.234-9.761-.605-10.898-.43-1.301.14-2.656 1.328-3.153a2.439 2.439 0 0 1 3.187 1.305c.762 1.797.989 5.05 1.043 7.465a.407.407 0 0 0 .407.398h.007a.406.406 0 0 0 .399-.414c-.059-2.484-.293-5.847-1.106-7.77a3.247 3.247 0 0 0-2.996-1.984zm0 0"/>
</svg>
